!!!COM: Haydn, Franz Joseph
!!!OTL: String Quartet in C Major
!!!OPS: Opus 54
!!!ONM: No. 2
!!!OMD: Finale: Adagio---Presto---Adagio
!!!OMV: 4
!!!SCT: H III:57
!!!SCA: Thematisch-bibliographisches Werkevererzeichnis (A. van Hoboken)
!!!YOR: Dover Edition; reprint of Eulenburg Edition
!!!ENC: Walter Hewlett
!!!CDT: 1732/3/31/-1809/5/31/
!!!CNT: Oesterreich
!!!YEC: Copyright (c) 1994, 2000 Center for Computer Assisted Research in the Humanities
!!!YEM: Rights to all derivative editions reserved.
!!!YEM: Refer to licensing agreement for further details.
!!!YEN: United States of America
**kern	**dynam	**kern	**dynam	**kern	**dynam	**kern	**dynam
*I:Violoncello	*I:Violoncello	*I:Viola	*I:Viola	*I:Violino II	*I:Violino II	*I:Violino I	*I:Violino I
*>[A,A,B,C,C,D]	*	*>[A,A,B,C,C,D]	*	*>[A,A,B,C,C,D]	*	*>[A,A,B,C,C,D]	*
*>A	*	*>A	*	*>A	*	*>A	*
*clefF4	*	*clefC3	*	*clefG2	*	*clefG2	*
*k[]	*	*k[]	*	*k[]	*	*k[]	*
*C:	*	*C:	*	*C:	*	*C:	*
*M2/4	*	*M2/4	*	*M2/4	*	*M2/4	*
! Adagio	!	! Adagio	!	! Adagio	!	! Adagio	!
(16.GG'/LL	f	(16.G'/LL	f	(16.G'/LL	f	(16.G'/LL	f
32GG'/JJk)	.	32G'/JJk)	.	32G'/JJk)	.	32G'/JJk)	.
64ryy	.	64ryy	.	64ryy	.	64ryy	.
64ryy	.	64ryy	.	64ryy	.	64ryy	.
64ryy	.	64ryy	.	64ryy	.	64ryy	.
64ryy	.	64ryy	.	64ryy	.	64ryy	.
64ryy	.	64ryy	.	64ryy	.	64ryy	.
64ryy	.	64ryy	.	64ryy	.	64ryy	.
64ryy	.	64ryy	.	64ryy	.	64ryy	.
64ryy	.	64ryy	.	64ryy	.	64ryy	.
64ryy	.	64ryy	.	64ryy	.	64ryy	.
64ryy	.	64ryy	.	64ryy	.	64ryy	.
64ryy	.	64ryy	.	64ryy	.	64ryy	.
64ryy	.	64ryy	.	64ryy	.	64ryy	.
64ryy	.	64ryy	.	64ryy	.	64ryy	.
64ryy	.	64ryy	.	64ryy	.	64ryy	.
64ryy	.	64ryy	.	64ryy	.	64ryy	.
64ryy	.	64ryy	.	64ryy	.	64ryy	.
64ryy	.	64ryy	.	64ryy	.	64ryy	.
64ryy	.	64ryy	.	64ryy	.	64ryy	.
64ryy	.	64ryy	.	64ryy	.	64ryy	.
64ryy	.	64ryy	.	64ryy	.	64ryy	.
64ryy	.	64ryy	.	64ryy	.	64ryy	.
64ryy	.	64ryy	.	64ryy	.	64ryy	.
64ryy	.	64ryy	.	64ryy	.	64ryy	.
64ryy	.	64ryy	.	64ryy	.	64ryy	.
=1	=1	=1	=1	=1	=1	=1	=1
4C/	.	4c\	.	4c/	.	4c/	.
(8c\L	.	(8e\L	p	4r	.	4r	.
8d\J)	.	8f\J)	.	.	.	.	.
=2	=2	=2	=2	=2	=2	=2	=2
(8.e\L	.	(8.g\L	.	4r	.	4r	.
32f\LL	.	32a\LL	.	.	.	.	.
32e\JJJ)	.	32g\JJJ)	.	.	.	.	.
(8d\L	.	(8f\L	.	8r	.	8r	.
8c\J)	.	8e\J)	.	8g/	p	8gg\	p
=3	=3	=3	=3	=3	=3	=3	=3
(8B\L	.	(8d/L	.	(8.g/L	.	(8.gg\L	.
8G\)	.	8B/)	.	.	.	.	.
.	.	.	.	32a/LL	.	32aa\LL	.
.	.	.	.	32f/JJJ)	.	32ff\JJJ)	.
8c'\	.	8c'/	.	(8e/L	.	(8ee\L	.
8F'\J	.	8F'/J	.	16.a/L	.	16.ff\L	.
.	.	.	.	32f/JJk)	.	32dd\JJk)	.
=4	=4	=4	=4	=4	=4	=4	=4
8G'/L	.	8G'\L	.	(4e/	.	(4cc\	.
8GG'/	.	8g'\	.	.	.	.	.
8GG'/J	.	8G'\J	.	8d/)	.	8b\)	.
(16.GG'/LL	.	(16.G'/LL	.	8r	.	8r	.
32GG'/JJk)	.	32G'/JJk)	.	.	.	.	.
=5	=5	=5	=5	=5	=5	=5	=5
(8.d\L	.	(8.f\L	.	4r	.	4r	.
32e\LL	.	32g\LL	.	.	.	.	.
32d\JJJ)	.	32f\JJJ)	.	.	.	.	.
(8c#\L	.	(8e\L	.	8r	.	8r	.
8d\J)	.	8f\J)	.	(16.g'/LL	.	(16.g'/LL	.
.	.	.	.	32g'/JJk)	.	32g'/JJk)	.
=6	=6	=6	=6	=6	=6	=6	=6
(4B\	.	(4d\	.	(8.ff\L	>	(8.aa\L	>
.	.	.	.	48aa\LL	.	48ccc\LL	.
.	.	.	.	48gg\	.	48bb\	.
.	.	.	.	48ff\JJJ)	]	48aa\JJJ)	]
16cn\LL)	.	16e/LL)	.	(16ee'\LL	.	(16gg'\LL	.
(16G'\	.	(16B'/	.	16dd'\	.	16ff'\	.
16A'\	.	16c'/	.	16cc'\	.	16ee'\	.
16F'\JJ)	.	16F'/JJ)	.	16a'\JJ)	.	16dd'\JJ)	.
=7	=7	=7	=7	=7	=7	=7	=7
4G\	.	8G/	.	8e/	.	8cc\	.
.	.	8r	.	8r	.	8r	.
8r	.	(8.F/L	pp	(4B/	pp	(8.g/L	pp
(8GG/	pp	.	.	.	.	.	.
.	.	16D/Jk)	.	.	.	32a/LL	.
.	.	.	.	.	.	32f/JJJ)	.
=8	=8	=8	=8	=8	=8	=8	=8
*>1st ending	*	*>1st ending	*	*>1st ending	*	*>1st ending	*
8C/)	.	8C/	.	8c/)	.	8e/	.
8r	.	8r	.	8r	.	8r	.
8r	.	8r	.	8r	.	8r	.
=:|!	=:|!	=:|!	=:|!	=:|!	=:|!	=:|!	=:|!
*>2nd ending	*	*>2nd ending	*	*>2nd ending	*	*>2nd ending	*
*>B	*	*>B	*	*>B	*	*>B	*
(8CC/L	.	(16C/LL	.	(16c/LL	.	8e/	.
.	.	16c'/)	.	16e/)	.	.	.
8EE/	.	(16c'/	.	(16e'/	.	8r	.
.	.	16c'/JJ	.	16e'/JJ	.	.	.
8GG/	.	16c'/LL	.	16e'/LL	.	8r	.
.	.	16c'/	.	16e'/	.	.	.
8C/J)	.	16c'/	.	16e'/	.	(16.g'/LL	.
.	.	16c'/JJ)	.	16e'/JJ)	.	.	.
.	.	.	.	.	.	32g'/JJk)	.
=9	=9	=9	=9	=9	=9	=9	=9
(8E\L	.	(16c'\LL	.	(16e'/LL	.	[4cc\	.
.	.	16c'\	.	16e'/	.	.	.
8G\	.	16c'\	.	16e'/	.	.	.
.	.	16c'\JJ)	.	16e'/JJ)	.	.	.
8c\	.	(16c'\LL	.	(16e'/LL	.	16cc\LL]	.
.	.	16c'\	.	16e'/	.	(32b\L	.
.	.	.	.	.	.	32cc\JJ	.
8e\J)	.	16c'\	.	16e'/	.	32b\LL	.
.	.	.	.	.	.	32cc\	.
.	.	16c'\JJ)	.	16e'/JJ)	.	32ee\	.
.	.	.	.	.	.	32cc\JJJ)	.
*clefG2	*	*	*	*	*	*	*
=10	=10	=10	=10	=10	=10	=10	=10
(8g\L	.	16c\LL	.	16e/LL	.	8g/	.
.	.	16c\	.	16e/	.	.	.
8cc\	.	16c\	.	16e/	.	8r	.
.	.	16c\JJ	.	16e/JJ	.	.	.
8ee\	.	16c\LL	.	16e/LL	.	8r	.
.	.	16c\	.	16e/	.	.	.
8cc\J)	.	16c\	.	16e/	.	(16.g'/LL	.
.	.	16c\JJ	.	16e/JJ	.	.	.
.	.	.	.	.	.	32g'/JJk)	.
*clefF4	*	*	*	*	*	*	*
=11	=11	=11	=11	=11	=11	=11	=11
(8GG\L	.	16d/ 16G/LL	.	16f/ 16B/LL	.	[4dd\	.
.	.	16d/ 16G/	.	16f/ 16B/	.	.	.
8G\	.	16d/ 16G/	.	16f/ 16B/	.	.	.
.	.	16d/ 16G/JJ	.	16f/ 16B/JJ	.	.	.
8B\	.	16d/ 16G/LL	.	16f/ 16B/LL	.	16dd\LL]	.
.	.	16d/ 16G/	.	16f/ 16B/	.	(32cc#\L	.
.	.	.	.	.	.	32dd\JJ	.
8d\J)	.	16d/ 16G/	.	16f/ 16B/	.	32cc#\LL	.
.	.	.	.	.	.	32dd\	.
.	.	16d/ 16G/JJ	.	16f/ 16B/JJ	.	32ff\	.
.	.	.	.	.	.	32dd\JJJ)	.
*clefG2	*	*	*	*	*	*	*
=12	=12	=12	=12	=12	=12	=12	=12
(8g\L	.	16d/ 16G/LL	.	16f/ 16B/LL	.	8g/	.
.	.	16d/ 16G/	.	16f/ 16B/	.	.	.
8b\	.	16d/ 16G/	.	16f/ 16B/	.	8r	.
.	.	16d/ 16G/JJ	.	16f/ 16B/JJ	.	.	.
8dd\	.	16d/ 16G/LL	.	16f/ 16B/LL	.	8r	.
.	.	16d/ 16G/	.	16f/ 16B/	.	.	.
8ff\J)	.	16d/ 16G/	.	16f/ 16B/	.	(16.g'/LL	.
.	.	16d/ 16G/JJ	.	16f/ 16B/JJ	.	.	.
.	.	.	.	.	.	32g'/JJk)	.
*clefF4	*	*	*	*	*	*	*
=13	=13	=13	=13	=13	=13	=13	=13
(8CC/L	.	16c\LL	.	16e/ 16G/LL	.	[4ee\	.
.	.	16c\	.	16e/ 16G/	.	.	.
8C/)	.	16c\	.	16e/ 16G/	.	.	.
.	.	16c\JJ	.	16e/ 16G/JJ	.	.	.
(8GG#/	.	16d\LL	.	16e/ 16B/LL	.	16ee\LL]	.
.	.	16d\	.	16e/ 16B/	.	(32dd#\L	.
.	.	.	.	.	.	32ee\JJ	.
8G#/J)	.	16d\	.	16e/ 16B/	.	32dd#\LL	.
.	.	.	.	.	.	32ee\	.
.	.	16d\JJ	.	16e/ 16B/JJ	.	32ffn\	.
.	.	.	.	.	.	32ddn\JJJ)	.
=14	=14	=14	=14	=14	=14	=14	=14
(8A\L	.	16c\LL	.	16e/ 16c/LL	.	(32dd\LLL	.
.	.	.	.	.	.	32ccn\	.
.	.	16c\	.	16e/ 16c/	.	32b\	.
.	.	.	.	.	.	32cc\JJ)	.
8F#\)	.	16c\	.	16d/ 16A/	.	(32b\LL	.
.	.	.	.	.	.	32cc\	.
.	.	16c\JJ	.	16d/ 16A/JJ	.	32ee\	.
.	.	.	.	.	.	32cc\JJJ)	.
8Gn\	.	16B\LL	.	16d/ 16G/LL	.	(32cc\LLL	.
.	.	.	.	.	.	32b\	.
.	.	16B\	.	16d/ 16G/	.	32dd\	.
.	.	.	.	.	.	32cc\JJ)	.
8BB\J	.	16d\	.	16g/	.	(32ee\LL	.
.	.	.	.	.	.	32dd\	.
.	.	16d\JJ	.	16g/JJ	.	32ff#\	.
.	.	.	.	.	.	32gg\JJJ)	.
=15	=15	=15	=15	=15	=15	=15	=15
8C/L	.	16e\LL	.	16g/LL	.	(32gg\LLL	.
.	.	.	.	.	.	32dd#\)	.
.	.	16e\	.	16g/	.	(32dd#\	.
.	.	.	.	.	.	32ee\JJ)	.
8C/	.	16A\	.	16g/	.	(32ee\LL	.
.	.	.	.	.	.	32b\	.
.	.	16A\JJ	.	16g/JJ	.	32cc\	.
.	.	.	.	.	.	32a\JJJ)	.
8D/	.	16d\LL	.	16g/ 16B/LL	.	8g/L	.
.	.	16d\	.	16g/ 16B/	.	.	.
8D/J	.	16c\	.	16f#/ 16A/	.	&(16.a/L)	.
.	.	16c\JJ	.	16f#/ 16A/JJ	.	.	.
.	.	.	.	.	.	32g/JJk&)	.
=16	=16	=16	=16	=16	=16	=16	=16
8GG/L	.	16B/LL	.	16g/ 16G/LL	.	8g/	.
.	.	16B/	.	16g/ 16G/	.	.	.
8G/J	.	16B/	.	16g/ 16G/	.	8r	.
.	.	16B/JJ	.	16g/ 16G/JJ	.	.	.
4r	.	16c\LL	.	16g/ 16A/LL	.	8r	.
.	.	16c\	.	16g/ 16A/	.	.	.
.	.	16d\	.	16fn/ 16B/	.	(16.g'/LL	.
.	.	16d\JJ	.	16f/ 16B/JJ	.	.	.
.	.	.	.	.	.	32g'/JJk)	.
=17	=17	=17	=17	=17	=17	=17	=17
(8CC/L	.	16c\LL	.	16e/LL	.	[4cc\	.
.	.	16c\	.	16e/	.	.	.
8EE/	.	16c\	.	16e/	.	.	.
.	.	16c\JJ	.	16e/JJ	.	.	.
8GG/	.	16c\LL	.	16e/LL	.	16cc\LL]	.
.	.	16c\	.	16e/	.	(32b\L	.
.	.	.	.	.	.	32cc\JJ	.
8C/J)	.	16c\	.	16e/	.	32b\LL	.
.	.	.	.	.	.	32cc\	.
.	.	16c\JJ	.	16e/JJ	.	32ee\	.
.	.	.	.	.	.	32cc\JJJ)	.
=18	=18	=18	=18	=18	=18	=18	=18
(8E\L	.	16c\LL	.	16e/LL	.	8g/	.
.	.	16c\	.	16e/	.	.	.
8G\	.	16c\	.	16e/	.	8r	.
.	.	16c\JJ	.	16e/JJ	.	.	.
8c\	.	16c\LL	.	16e/LL	.	8r	.
.	.	16c\	.	16e/	.	.	.
8e\J)	.	16c\	.	16e/	.	(16.g'/LL	.
.	.	16c\JJ	.	16e/JJ	.	.	.
.	.	.	.	.	.	32g'/JJk)	.
=19	=19	=19	=19	=19	=19	=19	=19
(8GG\L	.	16d/ 16G/LL	.	16f/ 16B/LL	.	[4ddn\	.
.	.	16d/ 16G/	.	16f/ 16B/	.	.	.
8G\	.	16d/ 16G/	.	16f/ 16B/	.	.	.
.	.	16d/ 16G/JJ	.	16f/ 16B/JJ	.	.	.
8B\	.	16d/ 16G/LL	.	16f/ 16B/LL	.	16dd\LL]	.
.	.	16d/ 16G/	.	16f/ 16B/	.	(32cc#\L	.
.	.	.	.	.	.	32dd\JJ	.
8d\J)	.	16d/ 16G/	.	16f/ 16B/	.	32cc#\LL	.
.	.	.	.	.	.	32dd\	.
.	.	16d/ 16G/JJ	.	16f/ 16B/JJ	.	32ff\	.
.	.	.	.	.	.	32dd\JJJ)	.
*clefG2	*	*	*	*	*	*	*
=20	=20	=20	=20	=20	=20	=20	=20
(8g\L	.	16d/ 16G/LL	.	16f/ 16B/LL	.	8g/	.
.	.	16d/ 16G/	.	16f/ 16B/	.	.	.
8b\	.	16d/ 16G/	.	16f/ 16B/	.	8r	.
.	.	16d/ 16G/JJ	.	16f/ 16B/JJ	.	.	.
8dd\	.	16d/ 16G/LL	.	16f/ 16B/LL	.	8r	.
.	.	16d/ 16G/	.	16f/ 16B/	.	.	.
8ff\J)	.	16d/ 16G/	.	16f/ 16B/	.	(16.g'/LL	.
.	.	16d/ 16G/JJ	.	16f/ 16B/JJ	.	.	.
.	.	.	.	.	.	32g'/JJk)	.
*clefF4	*	*	*	*	*	*	*
=21	=21	=21	=21	=21	=21	=21	=21
(8CC/L	.	16c\LL	.	16e/ 16G/LL	.	[4ee\	.
.	.	16c\	.	16e/ 16G/	.	.	.
8C/)	.	16c\	.	16e/ 16G/	.	.	.
.	.	16c\JJ	.	16e/ 16G/JJ	.	.	.
(8GG#/	.	16d\LL	.	16e/ 16B/LL	.	16ee\LL]	.
.	.	16d\	.	16e/ 16B/	.	(32dd#\L	.
.	.	.	.	.	.	32ee\JJ	.
8G#/J)	.	16d\	.	16e/ 16B/	.	32dd#\LL	.
.	.	.	.	.	.	32ee\	.
.	.	16d\JJ	.	16e/ 16B/JJ	.	32ffn\	.
.	.	.	.	.	.	32ddn\JJJ)	.
=22	=22	=22	=22	=22	=22	=22	=22
(8A\L	.	16c\LL	.	16e/ 16c/LL	.	(32dd\LLL	.
.	.	.	.	.	.	32cc\	.
.	.	16c\	.	16e/ 16c/	.	32b\	.
.	.	.	.	.	.	32cc\JJ)	.
8F#\)	.	16c\	.	16d/ 16A/	.	(32b\LL	.
.	.	.	.	.	.	32cc\	.
.	.	16c\JJ	.	16d/ 16A/JJ	.	32ee\	.
.	.	.	.	.	.	32cc\JJJ)	.
8Gn\	.	16B\LL	.	16d/ 16G/LL	.	(32cc\LLL	.
.	.	.	.	.	.	32b\	.
.	.	16B\	.	16d/ 16G/	.	32dd\	.
.	.	.	.	.	.	32cc\JJ)	.
8BB\J	.	16d\	.	16g/	.	(32ee\LL	.
.	.	.	.	.	.	32dd\	.
.	.	16d\JJ	.	16g/JJ	.	32ff#\	.
.	.	.	.	.	.	32gg\JJJ)	.
=23	=23	=23	=23	=23	=23	=23	=23
8C/L	.	16e\LL	.	16g/LL	.	(32gg\LLL	.
.	.	.	.	.	.	32dd#\)	.
.	.	16e\	.	16g/	.	(32dd#\	.
.	.	.	.	.	.	32ee\JJ)	.
8C/	.	16A\	.	16g/	.	(32ee\LL	.
.	.	.	.	.	.	32b\	.
.	.	16A\JJ	.	16g/JJ	.	32cc\	.
.	.	.	.	.	.	32a\JJJ)	.
8D/	.	16d\LL	.	16g/ 16B/LL	.	8g/L	.
.	.	16d\	.	16g/ 16B/	.	.	.
8D/J	.	16c\	.	16f#/ 16A/	.	&(16.a/L)	.
.	.	16c\JJ	.	16f#/ 16A/JJ	.	.	.
.	.	.	.	.	.	32g/JJk&)	.
=24	=24	=24	=24	=24	=24	=24	=24
(8GG/L	.	16B\LL	.	16g/ 16B/LL	.	8g/	.
.	.	16d\	.	16g/ 16B/	.	.	.
8BB/	.	16d\	.	16g/ 16B/	.	8r	.
.	.	16d\JJ	.	16g/ 16B/JJ	.	.	.
8D/	.	16d\LL	.	16g/ 16B/LL	.	8r	.
.	.	16d\	.	16g/ 16B/	.	.	.
8G/J)	.	16d\	.	16g/ 16B/	.	(16.g'/LL	.
.	.	16d\JJ	.	16g/ 16B/JJ	.	.	.
.	.	.	.	.	.	32g'/JJk)	.
=25	=25	=25	=25	=25	=25	=25	=25
(8GG/L	.	16d\ 16B\LL	.	16f/ 16G/LL	.	[4ffn\	.
.	.	16d\ 16B\	.	16f/ 16G/	.	.	.
8BB/	.	16d\ 16B\	.	16f/ 16G/	.	.	.
.	.	16d\ 16B\JJ	.	16f/ 16G/JJ	.	.	.
8D/	.	16d\ 16B\LL	.	16fn/ 16G/LL	.	16ff\LL]	.
.	.	16d\ 16B\	.	16f/ 16G/	.	(32ee\L	.
.	.	.	.	.	.	32ff\JJ	.
8G/J)	.	16d\ 16B\	.	16f/ 16G/	.	32ee\LL	.
.	.	.	.	.	.	32ff\	.
.	.	16d\ 16B\JJ	.	16f/ 16G/JJ	.	32aa\	.
.	.	.	.	.	.	32ff\JJJ)	.
=26	=26	=26	=26	=26	=26	=26	=26
(8C\L	.	16c\LL	.	16e/ 16G/LL	.	8ee\	.
.	.	16c\	.	16e/ 16G/	.	.	.
8E\	.	16c\	.	16e/ 16G/	.	8r	.
.	.	16c\JJ	.	16e/ 16G/JJ	.	.	.
8G\	.	16c\LL	.	16e/ 16G/LL	.	8r	.
.	.	16c\	.	16e/ 16G/	.	.	.
8c\J)	.	16c\	.	16e/ 16G/	.	(16.cc'\LL	.
.	.	16c\JJ	.	16e/ 16G/JJ	.	.	.
.	.	.	.	.	.	32cc'\JJk)	.
=27	=27	=27	=27	=27	=27	=27	=27
(8C\L	.	16g\ 16B-\LL	.	16e/ 16G/LL	.	[4bb-\	.
.	.	16g\ 16B-\	.	16e/ 16G/	.	.	.
8E\	.	16g\ 16B-\	.	16e/ 16G/	.	.	.
.	.	16g\ 16B-\JJ	.	16e/ 16G/JJ	.	.	.
8G\	.	16g\ 16B-\LL	.	16e/ 16G/LL	.	16bb-\LL]	.
.	.	16g\ 16B-\	.	16e/ 16G/	.	(32aa\L	.
.	.	.	.	.	.	32bb-\JJ	.
8c\J)	.	16g\ 16B-\	.	16e/ 16G/	.	32aa\LL	.
.	.	.	.	.	.	32bb-\	.
.	.	16g\ 16B-\JJ	.	16e/ 16G/JJ	.	32ddd\	.
.	.	.	.	.	.	32bb-\JJJ)	.
=28	=28	=28	=28	=28	=28	=28	=28
(8FF/L	.	16f\LL	.	16f/ 16A/LL	.	8aa\	.
.	.	16c\	.	16f/ 16A/	.	.	.
8AA/	.	16c\	.	16f/ 16A/	.	8r	.
.	.	16c\JJ	.	16f/ 16A/JJ	.	.	.
8C/	.	16c\LL	.	16f/ 16A/LL	.	8r	.
.	.	16c\	.	16f/ 16A/	.	.	.
8F/J)	.	16c\	.	16f/ 16A/	.	16.a/LL	.
.	.	16c\JJ	.	16f/ 16A/JJ	.	.	.
.	.	.	.	.	.	32a/JJk	.
=29	=29	=29	=29	=29	=29	=29	=29
(8C#\L	.	16c#\LL	.	16e/ 16A/LL	.	[4aa\	.
.	.	16c#\	.	16e/ 16A/	.	.	.
8E\	.	16c#\	.	16e/ 16A/	.	.	.
.	.	16c#\JJ	.	16e/ 16A/JJ	.	.	.
8A\	.	16c#\LL	.	16e/ 16A/LL	.	16aa\LL]	.
.	.	16c#\	.	16e/ 16A/	.	(32gg#\L	.
.	.	.	.	.	.	32aa\JJ	.
8c#\J)	.	16c#\	.	16e/ 16A/	.	32gg#\LL	.
.	.	.	.	.	.	32aa\	.
.	.	16c#\JJ	.	16e/ 16A/JJ	.	32bb-\	.
.	.	.	.	.	.	32ggn\JJJ)	.
=30	=30	=30	=30	=30	=30	=30	=30
8D/L	.	16f\LL	.	16d/LL	.	(32gg\LLL	.
.	.	.	.	.	.	32ff\	.
.	.	16f\	.	16d/	.	32ee\	.
.	.	.	.	.	.	32ff\JJ)	.
8BB/	.	16d\	.	16g/	.	(32ee\LL	.
.	.	.	.	.	.	32ff\	.
.	.	16d\JJ	.	16g/JJ	.	32aa\	.
.	.	.	.	.	.	32ff\JJJ)	.
8Cn/	.	16e\LL	.	16g/LL	.	(32ff\LLL	.
.	.	.	.	.	.	32ee\	.
.	.	16e\	.	16g/	.	32gg\	.
.	.	.	.	.	.	32ff\JJ)	.
8EE/J	.	16cn\	.	16g/	.	(32aa\LL	.
.	.	.	.	.	.	32gg\	.
.	.	16c\JJ	.	16g/JJ	.	32bbn\	.
.	.	.	.	.	.	32ccc\JJJ)	.
=31	=31	=31	=31	=31	=31	=31	=31
4.FF/	.	16c\LL	.	16a/LL	.	(32ccc\LLL	.
.	.	.	.	.	.	32gg#\)	.
.	.	16c\	.	16a/	.	(32gg#\	.
.	.	.	.	.	.	32aa\JJ)	.
.	.	16c#\	.	16a/	.	(32aa\LL	.
.	.	.	.	.	.	32ee\)	.
.	.	16c#\JJ	.	16a/JJ	.	(32ee\	.
.	.	.	.	.	.	32ff\JJJ)	.
.	.	16d\LL	.	16a/LL	.	(32ff\LLL	.
.	.	.	.	.	.	32cc#\)	.
.	.	16d\	.	16a/	.	(32cc#\	.
.	.	.	.	.	.	32dd\JJ)	.
8FF#/	.	16d\	.	16a/	.	(32dd\LL	.
.	.	.	.	.	.	32a\	.
.	.	16d\JJ	.	16a/JJ	.	32dd\	.
.	.	.	.	.	.	32ccn\JJJ)	.
=32	=32	=32	=32	=32	=32	=32	=32
8GG/L	.	16d\LL	.	16g/LL	.	(32cc/LLL	.
.	.	.	.	.	.	32b/	.
.	.	16d\	.	16g/	.	32a/	.
.	.	.	.	.	.	32g/JJ)	.
8G/J	.	16B\	.	16g/ 16G/	.	8G/J	.
.	.	16B\JJ	.	16g/ 16G/JJ	.	.	.
4r	.	16cn\LL	.	16g/ 16A/LL	.	8r	.
.	.	16c\	.	16g/ 16A/	.	.	.
.	.	16d\	.	16g/ 16B/	.	(16.g'/LL	.
.	.	16d\JJ	.	16g/ 16B/JJ	.	.	.
.	.	.	.	.	.	32g'/JJk)	.
=33	=33	=33	=33	=33	=33	=33	=33
(8CC/L	.	16c\LL	.	16e/ 16c/LL	.	[4cc\	.
.	.	16c\	.	16e/ 16c/	.	.	.
8C/	.	16c\	.	16e/ 16c/	.	.	.
.	.	16c\JJ	.	16e/ 16c/JJ	.	.	.
8E/	.	16c\LL	.	16e/ 16G/LL	.	16cc\LL]	.
.	.	16c\	.	16e/ 16G/	.	(32b\L	.
.	.	.	.	.	.	32cc\JJ	.
8G/J)	.	16c\	.	16e/ 16G/	.	32b\LL	.
.	.	.	.	.	.	32cc\	.
.	.	16c\JJ	.	16e/ 16G/JJ	.	32ee\	.
.	.	.	.	.	.	32cc\JJJ)	.
=34	=34	=34	=34	=34	=34	=34	=34
(8c\L	.	16c\LL	.	16e/ 16G/LL	.	8g/	.
.	.	16c\	.	16e/ 16G/	.	.	.
*clefG2	*	*	*	*	*	*	*
8e\	.	16c\	.	16e/ 16G/	.	8r	.
.	.	16c\JJ	.	16e/ 16G/JJ	.	.	.
8g\	.	16c\LL	.	16e/ 16G/LL	.	8r	.
.	.	16c\	.	16e/ 16G/	.	.	.
8cc\J)	.	16c\	.	16e/ 16G/	.	(16.g'/LL	.
.	.	16c\JJ	.	16e/ 16G/JJ	.	.	.
.	.	.	.	.	.	32g'/JJk)	.
*clefF4	*	*	*	*	*	*	*
=35	=35	=35	=35	=35	=35	=35	=35
(8GG\L	.	16d/ 16G/LL	.	16f/ 16B/LL	.	[4dd\	.
.	.	16d/ 16G/	.	16f/ 16B/	.	.	.
8G\	.	16d/ 16G/	.	16f/ 16B/	.	.	.
.	.	16d/ 16G/JJ	.	16f/ 16B/JJ	.	.	.
8B\	.	16d/ 16G/LL	.	16f/ 16B/LL	.	16dd\LL]	.
.	.	16d/ 16G/	.	16f/ 16B/	.	(32cc#\L	.
.	.	.	.	.	.	32dd\JJ	.
8d\J)	.	16d/ 16G/	.	16f/ 16B/	.	32cc#\LL	.
.	.	.	.	.	.	32dd\	.
.	.	16d/ 16G/JJ	.	16f/ 16B/JJ	.	32ff\	.
.	.	.	.	.	.	32dd\JJJ)	.
*clefG2	*	*	*	*	*	*	*
=36	=36	=36	=36	=36	=36	=36	=36
(8g\L	.	16d/ 16G/LL	.	16f/ 16B/LL	.	8dd\	.
.	.	16d/ 16G/	.	16f/ 16B/	.	.	.
8b\	.	16d/ 16G/	.	16f/ 16B/	.	8r	.
.	.	16d/ 16G/JJ	.	16f/ 16B/JJ	.	.	.
8dd\	.	16d/ 16G/LL	.	16f/ 16B/LL	.	8r	.
.	.	16d/ 16G/	.	16f/ 16B/	.	.	.
8ff\J)	.	16d/ 16G/	.	16f/ 16B/	.	(16.g'/LL	.
.	.	16d/ 16G/JJ	.	16f/ 16B/JJ	.	.	.
.	.	.	.	.	.	32g'/JJk)	.
*clefF4	*	*	*	*	*	*	*
=37	=37	=37	=37	=37	=37	=37	=37
(8CC/L	.	16e/ 16G/LL	.	16e\LL	.	(8.ee\L	.
.	.	16e/ 16G/	.	16cc\	.	.	.
8C/)	.	16e/ 16G/	.	16cc\	.	.	.
.	.	16e/ 16G/JJ	.	16cc\JJ	.	16ff\Jk)	.
(8AA/	.	16c\LL	.	16cc\LL	.	(8.ffT\L	.
.	.	16c\	.	16cc\	.	.	.
8A/J)	.	16c\	.	16cc\	.	.	.
.	.	16c\JJ	.	16cc\JJ	.	32ee\LL	.
.	.	.	.	.	.	32ff\JJJ)	.
=38	=38	=38	=38	=38	=38	=38	=38
(8EE/L	.	16G/LL	.	16cc\LL	.	(32gg\LLL	.
.	.	.	.	.	.	32ff\	.
.	.	16G/	.	16cc\	.	32ee\	.
.	.	.	.	.	.	32ff\JJ	.
8E/)	.	16G/	.	16cc\	.	32gg\LL	.
.	.	.	.	.	.	32aa\	.
.	.	16G/JJ	.	16cc\JJ	.	32bb\	.
.	.	.	.	.	.	32ccc\JJJ)	.
(8FF/	.	16A\LL	.	16a/LL	.	(32ccc\LLL	.
.	.	.	.	.	.	32gg#\)	.
.	.	16A\	.	16a/	.	(32gg#\	.
.	.	.	.	.	.	32aa\JJ)	.
8F/J)	.	16f\	.	16a/	.	(32aa\LL	.
.	.	.	.	.	.	32ee\	.
.	.	16f\JJ	.	16a/JJ	.	32ff\	.
.	.	.	.	.	.	32dd\JJJ)	.
=39	=39	=39	=39	=39	=39	=39	=39
(8GG/L	.	16e\LL	.	16e\LL	.	([8cc\L	.
.	.	16e\	.	16cc\	.	.	.
8G/)	.	16e\	.	16cc\	.	32cc\LL]	.
.	.	.	.	.	.	32ee\	.
.	.	16e\JJ	.	16cc\JJ	.	32gg\	.
.	.	.	.	.	.	32ee\JJJ	.
(8GG/	.	16e\LL	.	16cc\LL	.	32gg\LLL	.
.	.	.	.	.	.	32ee\	.
.	.	16g\	.	16cc\	.	32gg\	.
.	.	.	.	.	.	32ee\JJJ)	.
8G/J)	.	16f\	.	16b\	.	(16ff'\LL	.
.	.	16f\JJ	.	16b\JJ	.	16b'\JJ)	.
=40||	=40||	=40||	=40||	=40||	=40||	=40||	=40||
*k[b-e-a-]	*	*k[b-e-a-]	*	*k[b-e-a-]	*	*k[b-e-a-]	*
*c:	*	*c:	*	*c:	*	*c:	*
(8CC/L	.	16e-\LL	.	16cc/LL	.	8cc\	.
.	.	16c\	.	16e-/	.	.	.
8EE-/	.	16c\	.	16e-/	.	8r	.
.	.	16c\JJ	.	16e-/JJ	.	.	.
8GG/	.	16c\LL	.	16e-/LL	.	8r	.
.	.	16c\	.	16e-/	.	.	.
8C/J)	.	16c\	.	16e-/	.	(16.g'/LL	.
.	.	16c\JJ	.	16e-/JJ	.	.	.
.	.	.	.	.	.	32g'/JJk)	.
=41	=41	=41	=41	=41	=41	=41	=41
(8E-\L	.	16c\LL	.	16e-/LL	.	[4cc\	.
.	.	16c\	.	16e-/	.	.	.
8G\	.	16c\	.	16e-/	.	.	.
.	.	16c\JJ	.	16e-/JJ	.	.	.
8c\	.	16c\LL	.	16e-/LL	.	16cc\LL]	.
.	.	16c\	.	16e-/	.	(32b\L	.
.	.	.	.	.	.	32cc\JJ	.
8e-\J)	.	16c\	.	16e-/	.	32bn\LL	.
.	.	.	.	.	.	32cc\	.
.	.	16c\JJ	.	16e-/JJ	.	32ee-\	.
.	.	.	.	.	.	32cc\JJJ)	.
*clefG2	*	*	*	*	*	*	*
=42	=42	=42	=42	=42	=42	=42	=42
(8g\L	.	16c\LL	.	16e-/LL	.	8g/	.
.	.	16c\	.	16e-/	.	.	.
8cc\	.	16c\	.	16e-/	.	8r	.
.	.	16c\JJ	.	16e-/JJ	.	.	.
8ee-\	.	16c\LL	.	16e-/LL	.	8r	.
.	.	16c\	.	16e-/	.	.	.
*clefF4	*	*	*	*	*	*	*
8C\J)	.	16c\	.	16e-/	.	(16.g'/LL	.
.	.	16c\JJ	.	16e-/JJ	.	.	.
.	.	.	.	.	.	32g'/JJk)	.
=43	=43	=43	=43	=43	=43	=43	=43
(8DD-/L	.	16A-/LL	.	16f/LL	.	[4a-/	.
.	.	16A-/	.	16f/	.	.	.
8FF/	.	16A-/	.	16f/	.	.	.
.	.	16A-/JJ	.	16f/JJ	.	.	.
8AA-/	.	16A-/LL	.	16f/LL	.	16a-\LL]	.
.	.	16A-/	.	16f/	.	(32b-\L	.
.	.	.	.	.	.	32cc\JJ	.
8D-/J)	.	16A-/	.	16f/	.	32dd-\LL	.
.	.	.	.	.	.	32ee-\	.
.	.	16A-/JJ	.	16f/JJ	.	32ff\	.
.	.	.	.	.	.	32dd-\JJJ)	.
=44	=44	=44	=44	=44	=44	=44	=44
(8E-\L	.	16G/LL	.	16e-/LL	.	[4b-\	.
.	.	16G/	.	16e-/	.	.	.
8F\	.	16A-/	.	16e-/	.	.	.
.	.	16A-/JJ	.	16e-/JJ	.	.	.
8G\	.	16B-/LL	.	16e-/LL	.	16b-\LL]	.
.	.	16B-/	.	16e-/	.	(32cc\L	.
.	.	.	.	.	.	32dd-\JJ	.
8E-\J)	.	16G/	.	16e-/	.	32ee-\LL	.
.	.	.	.	.	.	32dd-\	.
.	.	16G/JJ	.	16e-/JJ	.	32cc\	.
.	.	.	.	.	.	32dd-\JJJ)	.
=45	=45	=45	=45	=45	=45	=45	=45
(8A-\L	.	16c/LL	.	16e-/LL	.	(16.cc\LL	.
.	.	16c/	.	16e-/	.	.	.
.	.	.	.	.	.	32ddn\Jk)	.
8F\	.	16B-/	.	16a-/	.	(16.ddT\L	.
.	.	16B-/JJ	.	16a-/JJ	.	.	.
.	.	.	.	.	.	64cc\LL	.
.	.	.	.	.	.	64dd\JJJJ)	.
8G\	.	16B-/LL	.	16g/LL	.	(16.ee-\LL	.
.	.	16B-/	.	16g/	.	.	.
.	.	.	.	.	.	32ff\Jk)	.
8Dn\J)	.	16B-/	.	16f/	.	(16.ffT\L	.
.	.	16B-/JJ	.	16f/JJ	.	.	.
.	.	.	.	.	.	64ee-\LL	.
.	.	.	.	.	.	64ff\JJJJ)	.
=46	=46	=46	=46	=46	=46	=46	=46
(8E-/L	.	16B-\LL	.	16e-/LL	.	(8gg\L	.
.	.	16B-\	.	16e-/	.	.	.
8C/)	.	16e-\	.	16e-/	.	32bb-\LL	.
.	.	.	.	.	.	32aa-\	.
.	.	16e-\JJ	.	16e-/JJ	.	32gg\	.
.	.	.	.	.	.	32aa-\JJJ)	.
(8GG/	.	16B-/LL	.	16e-/LL	.	(16bb-\LL	.
.	.	16B-/	.	16e-/	.	32aa-\L	.
.	.	.	.	.	.	32gg\JJ	.
8G/J)	.	16B-/	.	16e-/	.	32ff\LL	.
.	.	.	.	.	.	32ee-\	.
.	.	16B-/JJ	.	16e-/JJ	.	32dd\	.
.	.	.	.	.	.	32ee-\JJJ)	.
=47	=47	=47	=47	=47	=47	=47	=47
(8A-\L	.	16c\LL	.	16e-/LL	.	(32dd\LLL	.
.	.	.	.	.	.	32cc\	.
.	.	16c\	.	16e-/	.	32bn\	.
.	.	.	.	.	.	32cc\JJ	.
8AA-\)	.	16c\	.	16e-/	.	32dd\LL	.
.	.	.	.	.	.	32ee-\	.
.	.	16c\JJ	.	16e-/JJ	.	32cc\	.
.	.	.	.	.	.	32a-\JJJ)	.
8BB-\	.	16B-/LL	.	16e-/LL	.	(8g/L	.
.	.	16B-/	.	16e-/	.	.	.
8BB-\J	.	16A-/	.	16d/	.	8fT/J	.
.	.	16A-/JJ	.	16d/JJ	.	.	.
!	!	!	!	!	!	! 16e-P/LL	!
!	!	!	!	!	!	! 16fP/JJ)	!
=48	=48	=48	=48	=48	=48	=48	=48
(8EE-/L	.	16G/LL	.	16e-/LL	.	4e-p/	.
.	.	16e-/	.	16g/ 16B-/	.	.	.
8GG/	.	16e-/	.	16g/ 16B-/	.	.	.
.	.	16e-/JJ	.	16g/ 16B-/JJ	.	.	.
8BB-/	.	16e-\LL	.	16g/ 16B-/LL	.	8r	.
.	.	16e-\	.	16g/ 16B-/	.	.	.
8E-/J)	.	16e-\	.	16g/ 16B-/	.	(16.b-'\LL	.
.	.	16e-\JJ	.	16g/ 16B-/JJ	.	.	.
.	.	.	.	.	.	32b-'\JJk)	.
=49	=49	=49	=49	=49	=49	=49	=49
(8D\L	.	16d\LL	.	16f/ 16B-/LL	.	[4aa-\	.
.	.	16d\	.	16f/ 16B-/	.	.	.
8F\	.	16d\	.	16f/ 16B-/	.	.	.
.	.	16d\JJ	.	16f/ 16B-/JJ	.	.	.
8B-\	.	16d\LL	.	16f/ 16B-/LL	.	16aa-\LL]	.
.	.	16d\	.	16f/ 16B-/	.	(32gg\L	.
.	.	.	.	.	.	32aa-\JJ	.
8d\J)	.	16d\	.	16f/ 16B-/	.	32gg\LL	.
.	.	.	.	.	.	32aa-\	.
.	.	16d\JJ	.	16f/ 16B-/JJ	.	32bb-\	.
.	.	.	.	.	.	32aa-\JJJ)	.
=50	=50	=50	=50	=50	=50	=50	=50
(8EE-/L	.	16e-\LL	.	16g/ 16B-/LL	.	8gg\	.
.	.	16e-\	.	16g/ 16B-/	.	.	.
8GG/	.	16e-\	.	16g/ 16B-/	.	8r	.
.	.	16e-\JJ	.	16g/ 16B-/JJ	.	.	.
8BB-/	.	16e-\LL	.	16g/ 16B-/LL	.	8r	.
.	.	16e-\	.	16g/ 16B-/	.	.	.
8E-/J)	.	16e-\	.	16g/ 16B-/	.	(16.g'/LL	.
.	.	16e-\JJ	.	16g/ 16B-/JJ	.	.	.
.	.	.	.	.	.	32g'/JJk)	.
=51	=51	=51	=51	=51	=51	=51	=51
(8BBn\L	.	16d\LL	.	16f/ 16G/LL	.	[4gg\	.
.	.	16d\	.	16f/ 16G/	.	.	.
8D\	.	16d\	.	16f/ 16G/	.	.	.
.	.	16d\JJ	.	16f/ 16G/JJ	.	.	.
8G\	.	16Bn/LL	.	16d/ 16G/LL	.	16gg\LL]	.
.	.	16B/	.	16d/ 16G/	.	(32ff#\L	.
.	.	.	.	.	.	32gg\JJ	.
8Bn\J)	.	16B/	.	16d/ 16G/	.	32ff#\LL	.
.	.	.	.	.	.	32gg\	.
.	.	16B/JJ	.	16d/ 16G/JJ	.	32aa-\	.
.	.	.	.	.	.	32ffn\JJJ)	.
=52	=52	=52	=52	=52	=52	=52	=52
(8C\L	.	16c\LL	.	16e-/ 16G/LL	.	8ee-\	.
.	.	16c\	.	16e-/ 16G/	.	.	.
8E-\	.	16c\	.	16e-/ 16G/	.	8r	.
.	.	16c\JJ	.	16e-/ 16G/JJ	.	.	.
8G\	.	16c\LL	.	16e-/ 16G/LL	.	8r	.
.	.	16c\	.	16e-/ 16G/	.	.	.
8c\J)	.	16c\	.	16e-/ 16G/	.	(16.g'/LL	.
.	.	16c\JJ	.	16e-/ 16G/JJ	.	.	.
.	.	.	.	.	.	32g'/JJk)	.
=53	=53	=53	=53	=53	=53	=53	=53
(8AA-\L	.	16c\LL	.	16f#/LL	.	[4ee-\	.
.	.	16c\	.	16f#/	.	.	.
8C\	.	16c\	.	16f#/	.	.	.
.	.	16c\JJ	.	16f#/JJ	.	.	.
8E-\	.	16A-/LL	.	16f#/LL	.	16ee-\LL]	.
.	.	16A-/	.	16f#/	.	(32dd\L	.
.	.	.	.	.	.	32cc\JJ	.
8A-\J)	.	16c/	.	16f#/	.	32bn\LL	.
.	.	.	.	.	.	32cc\	.
.	.	16c/JJ	.	16f#/JJ	.	32dd\	.
.	.	.	.	.	.	32cc\JJJ)	.
=54	=54	=54	=54	=54	=54	=54	=54
8GG/L	.	16Bn/LL	.	16g/LL	.	8gg\	.
.	.	16B/	.	16g/	.	.	.
8G/	.	16B/	.	16g/	.	8r	.
.	.	16B/JJ	.	16g/JJ	.	.	.
8GG/	.	16e-\LL	.	16f#/ 16c/LL	.	(32ff\LLL	.
.	.	.	.	.	.	32ee-\	.
.	.	16e-\	.	16f#/ 16c/	.	32dd\	.
.	.	.	.	.	.	32cc\JJ	.
8G/J	.	16e-\	.	16f#/ 16c/	.	32bn\LL	.
.	.	.	.	.	.	32cc\	.
.	.	16e-\JJ	.	16f#/ 16c/JJ	.	32dd\	.
.	.	.	.	.	.	32cc\JJJ)	.
=55	=55	=55	=55	=55	=55	=55	=55
8GG/L	.	16d\LL	.	16g/ 16Bn/LL	.	8bn\	.
.	.	16d\	.	16g/ 16B/	.	.	.
8G/	.	16d\	.	16g/ 16B/	.	8r	.
.	.	16d\JJ	.	16g/ 16B/JJ	.	.	.
8GG/	pp	16e-/LL	pp	16f#/LL	pp	(32f/LLL	pp
.	.	.	.	.	.	32e-/	.
.	.	16e-/	.	16f#/	.	32d/	.
.	.	.	.	.	.	32c/JJ	.
8G/J	.	16E-/	.	16f#/	.	32Bn/LL	.
.	.	.	.	.	.	32c/	.
.	.	16E-/JJ	.	16f#/JJ	.	32d/	.
.	.	.	.	.	.	32c/JJJ)	.
=56	=56	=56	=56	=56	=56	=56	=56
8GG/	.	8D/	.	8g/	.	8Bn/	.
8r;	.	8r	.	8r;	.	8r;	.
=!|:	=!|:	=!|:	=!|:	=!|:	=!|:	=!|:	=!|:
*>C	*	*>C	*	*>C	*	*>C	*
*k[]	*	*k[]	*	*k[]	*	*k[]	*
*C:	*	*C:	*	*C:	*	*C:	*
! Presto	!	! Presto	!	! Presto	!	! Presto	!
4r	.	4r	.	8c'/L	.	8e'/L	mf
.	.	.	.	8d'/J	.	8f'/J	.
4ryy	.	4ryy	.	4ryy	.	4ryy	.
=57	=57	=57	=57	=57	=57	=57	=57
8r	.	2r	.	(8d#/L	.	(8f#/L	.
8C'/L	mf	.	.	8en/J)	.	8g/J)	.
8CC'/	.	.	.	8f'/L	.	8a'/L	.
8C'/J	.	.	.	8dn'/J	.	8b'/J	.
=58	=58	=58	=58	=58	=58	=58	=58
8CC'/L	.	2r	.	(8f/L	.	(8dd\L	.
8C'/J	.	.	.	8e/)	.	8cc\J)	.
4r	.	.	.	8g'/	.	8b'\L	.
.	.	.	.	8a'/J	.	8cc'\J	.
=59	=59	=59	=59	=59	=59	=59	=59
2r	.	8r	.	(8a#/L	.	(8cc#\L	.
.	.	8g'\L	mf	8b/J)	.	8dd\J)	.
.	.	8B'\	.	8dd'\L	.	8ff'\L	.
.	.	8cn'\J	.	8ccn'\J	.	8ee'\J	.
=60	=60	=60	=60	=60	=60	=60	=60
4r	.	8G'\L	.	(8cc\L	.	(8ee\L	.
.	.	8g'\	.	8b\J)	.	8dd\J)	.
8e'\L	f	8g'\	f	8cc'\L	f	8cccn'\L	f
8e'\J	.	8g'\J	.	8cc'\J	.	8ccc'\J	.
=61	=61	=61	=61	=61	=61	=61	=61
4f\	.	4g\	.	4dd\	.	(8ccc\L	.
.	.	.	.	.	.	8bb\J)	.
8e'\L	.	8g'\L	.	8cc'\L	.	8ccc'\L	.
8e'\J	.	8g'\J	.	8cc'\J	.	8ccc'\J	.
=62	=62	=62	=62	=62	=62	=62	=62
4f\	.	4g\	.	4dd\	.	(8ccc\L	.
.	.	.	.	.	.	8bb\J)	.
8e'\L	.	8g'\L	.	8cc'\L	.	8ccc'\L	.
8e'\J	.	8g'\J	.	8cc'\J	.	8ccc'\J	.
=63	=63	=63	=63	=63	=63	=63	=63
8c'\L	.	8cc'\L	.	8ee'\L	.	8aa'\L	.
8c'\	.	8cc'\	.	8ee'\	.	8aa'\J	.
8d'\	.	8cc'\	.	8a'\	.	(16gg\LL	.
.	.	.	.	.	.	16ff#\	.
8d'\J	.	8cc'\J	.	8a'\J	.	16ee\	.
.	.	.	.	.	.	16ff#\JJ)	.
=64	=64	=64	=64	=64	=64	=64	=64
4G\	.	4b\	.	4b\	.	4gg\	.
=:|!	=:|!	=:|!	=:|!	=:|!	=:|!	=:|!	=:|!
*>D	*	*>D	*	*>D	*	*>D	*
4r	.	4r	.	8g'/L	mf	8b'\L	mf
.	.	.	.	8a'/J	.	8cc'\J	.
4ryy	.	4ryy	.	4ryy	.	4ryy	.
=65	=65	=65	=65	=65	=65	=65	=65
2r	.	8r	.	(8a#/L	.	(8cc#\L	.
.	.	8g'\L	mf	8b/J)	.	8dd\J)	.
.	.	8B'\	.	8dd'\L	.	8ff'\L	.
.	.	8cn'\J	.	8ccn'\J	.	8ee'\J	.
=66	=66	=66	=66	=66	=66	=66	=66
2r	.	8G'\L	.	(8cc\L	.	(8ee\L	.
.	.	8g'\J	.	8b\J)	.	8dd\J)	.
.	.	4r	.	8cc'\L	.	8ee'\L	.
.	.	.	.	8dd'\J	.	8ff'\J	.
=67	=67	=67	=67	=67	=67	=67	=67
8r	.	2r	.	(8dd#\L	.	(8ff#\L	.
8c'\L	mf	.	.	8ee\J)	.	8gg\J)	.
8C'\	.	.	.	8aa'\L	.	8cccn'\L	.
8E'\J	.	.	.	8gg'\J	.	8bb-'\J	.
=68	=68	=68	=68	=68	=68	=68	=68
8FF'/L	.	4r	.	(8gg\L	.	(8bb-\L	.
8F'/J	.	.	.	8ff\J)	.	8aa\J)	.
4r	.	8r	.	8ff'\L	.	8aa'\L	.
.	.	8a'\	.	8cc#'\J	.	8ee'\J	.
=69	=69	=69	=69	=69	=69	=69	=69
4r	.	8d'\L	.	(8ff\L	.	(8gg\L	.
.	.	8dd'\J	.	8dd\J)	.	8ff\J)	.
8r	.	4r	.	8ff'\L	.	8aa'\L	.
8G'\	.	.	.	8b'\J	.	8dd'\J	.
=70	=70	=70	=70	=70	=70	=70	=70
8C'\L	.	4r	.	(8dd\L	.	(8ff\L	.
8c'\J	.	.	.	8cc\J)	.	8ee\J)	.
8r	.	8r	.	8ee'\L	.	8gg'\L	.
8C'/	.	8g'\	.	8g'\J	.	8ee'\J	.
=71	=71	=71	=71	=71	=71	=71	=71
8F'/L	.	8e'\L	.	(8b-/L	.	(8cc#\L	.
8FF'/J	.	8a'\J	.	8a/J)	.	8dd\J)	.
8r	.	8r	.	8f'/L	.	8a'\L	.
8F#'\	.	8f#'\	.	8a'/J	.	8dd'\J	.
=72	=72	=72	=72	=72	=72	=72	=72
8G'/L	.	8g'\L	.	(8e/L	.	(8ccn\L	.
8GG'/J	.	8G'\J	.	8d/J)	.	8b\J)	.
4r	.	4r	.	8g'/L	p	8b'\L	p
.	.	.	.	8a'/J	.	8cc'\J	.
=73	=73	=73	=73	=73	=73	=73	=73
2r	.	2r	.	(8cc\L	.	(8ee\L	.
.	.	.	.	8b\J)	.	8dd\J)	.
.	.	.	.	8b'\L	.	8dd'\L	.
.	.	.	.	8cc#'\J	.	8ee'\J	.
=74	=74	=74	=74	=74	=74	=74	=74
4r	.	4r	.	(8ee\L	.	(8gg\L	.
.	.	.	.	8dd\J)	.	8ff\J)	.
8G'\L	p	8B'/L	p	4r	.	4r	.
8A'\J	.	8cn'/J	.	.	.	.	.
=75	=75	=75	=75	=75	=75	=75	=75
(8c\L	.	(8e\L	.	2r	.	2r	.
8B\)	.	8d\)	.	.	.	.	.
8B'\	.	8d'\	.	.	.	.	.
8c#'\J	.	8e'\J	.	.	.	.	.
=76	=76	=76	=76	=76	=76	=76	=76
(8e\L	.	(8g\L	.	4r	.	4r	.
8d\J)	.	8f\J)	.	.	.	.	.
4r	.	4r	.	8b'\L	pp	8dd'\L	pp
.	.	.	.	8cc#'\J	.	8ee'\J	.
=77	=77	=77	=77	=77	=77	=77	=77
4r	.	4r	.	(8ee\L	.	(8gg\L	.
.	.	.	.	8dd\J)	.	8ff\J)	.
8BB'/L	pp	8D'/L	pp	4r	.	4r	.
8C#'/J	.	8E'/J	.	.	.	.	.
=78	=78	=78	=78	=78	=78	=78	=78
(8E\L	.	(8G/L	.	2r	.	2r	.
8D\J)	.	8F/J)	.	.	.	.	.
4r	.	4r	.	.	.	.	.
=79	=79	=79	=79	=79	=79	=79	=79
2r	.	2r	.	2r	.	2r	.
=80	=80	=80	=80	=80	=80	=80	=80
2r	.	2r	.	4r	.	4r	.
.	.	.	.	8c'/L	mf	8e'/L	mf
.	.	.	.	8d'/J	.	8f'/J	.
=81	=81	=81	=81	=81	=81	=81	=81
8r	.	2r	.	(8d#/L	.	(8f#/L	.
8Cn'/L	f	.	.	8e/J)	.	8g/J)	.
8CC'/	.	.	.	8f'/L	.	8a'/L	.
8C'/J	.	.	.	8dn'/J	.	8b'/J	.
=82	=82	=82	=82	=82	=82	=82	=82
8CC'/L	.	2r	.	(8f/L	.	(8dd\L	.
8C'/J	.	.	.	8e/J)	.	8cc\J)	.
4r	.	.	.	8g'/L	.	8b'\L	.
.	.	.	.	8a'/J	.	8cc'\J	.
=83	=83	=83	=83	=83	=83	=83	=83
2r	.	8r	.	(8a#/L	.	(8cc#\L	.
.	.	8g'\L	mf	8b/J)	.	8dd\J)	.
.	.	8B'\	.	8dd'\L	.	8ff'\L	.
.	.	8cn'\J	.	8ccn'\J	.	8ee'\J	.
=84	=84	=84	=84	=84	=84	=84	=84
4r	.	8G'\L	.	(8cc\L	.	(8ee\L	.
.	.	8g'\	.	8b\J)	.	8dd\J)	.
8e'\L	f	8g'\	f	8cc'\L	f	8cccn'\L	f
8e'\J	.	8g'\J	.	8cc'\J	.	8ccc'\J	.
=85	=85	=85	=85	=85	=85	=85	=85
4f\	.	8G\L	.	4dd\	.	(8ccc\L	.
.	.	8g'\	.	.	.	8bb\J)	.
8e'\L	.	8g'\	.	8cc'\L	.	8ccc'\L	.
8e'\J	.	8g'\J	.	8cc'\J	.	8ccc'\J	.
=86	=86	=86	=86	=86	=86	=86	=86
4f\	.	8G\L	.	4dd\	.	(8ccc\L	.
.	.	8g'\	.	.	.	8bb\J)	.
8E'\L	.	8g'\	.	8cc'\L	.	8ccc'\L	.
8E'\J	.	8g'\J	.	8cc'\J	.	8ccc'\J	.
=87	=87	=87	=87	=87	=87	=87	=87
8F'\L	.	8a'\L	.	8cc'/L	.	8aa'\L	.
8F'\	.	8a'\	.	8cc'/	.	8aa'\J	.
8G'\	.	8d'\	.	8f'/	.	(16cc\LL	.
.	.	.	.	.	.	16b\	.
8G'\J	.	8d'\J	.	8f'/J	.	16a\	.
.	.	.	.	.	.	16b\JJ)	.
=88	=88	=88	=88	=88	=88	=88	=88
8C'\L	.	8e'\	.	8e/	.	8cc'\	.
8c'\J	.	8r	.	8r	.	8r	.
4r	.	4r	.	8g'/L	mf	8b'\L	mf
.	.	.	.	8a'/J	.	8cc'\J	.
=89	=89	=89	=89	=89	=89	=89	=89
2r	.	8r	.	(8a#/L	.	(8cc#\L	.
.	.	8g'\L	mf	8b/J)	.	8dd\J)	.
.	.	8B'\	.	8dd'\L	.	8ff'\L	.
.	.	8cn'\J	.	8ccn'\J	.	8ee'\J	.
=90	=90	=90	=90	=90	=90	=90	=90
2r	.	8G'\L	.	(8cc\L	.	(8ee\L	.
.	.	8g'\J	.	8b\)	.	8dd\J)	.
.	.	4r	.	8cc'\	.	8ee'\L	.
.	.	.	.	8dd'\J	.	8ff'\J	.
=91	=91	=91	=91	=91	=91	=91	=91
8r	.	2r	.	(8dd#\L	.	(8ff#\L	.
8c'\L	mf	.	.	8ee\J)	.	8gg\J)	.
8C'\	.	.	.	8aa'\L	.	8cccn'\L	.
8E'\J	.	.	.	8gg'\J	.	8bb-'\J	.
=92	=92	=92	=92	=92	=92	=92	=92
8FF'/L	.	4r	.	(8gg\L	.	(8bb-\L	.
8F'/J	.	.	.	8ff\)	.	8aa\J)	.
4r	.	8r	.	8ff'\	.	8aa'\L	.
.	.	8a'\	.	8cc#'\J	.	8ee'\J	.
=93	=93	=93	=93	=93	=93	=93	=93
4r	.	8d'\L	.	(8ff\L	.	(8gg\L	.
.	.	8dd'\J	.	8ddn\)	.	8ff\J)	.
8r	.	4r	.	8ff'\	.	8aa'\L	.
8G'\	.	.	.	8b'\J	.	8dd'\J	.
=94	=94	=94	=94	=94	=94	=94	=94
8C'\L	.	4r	.	(8dd\L	.	(8ff\L	.
8c'\J	.	.	.	8cc\J)	.	8ee\J)	.
8r	.	8r	.	8ee'\L	.	8gg'\L	.
8C'/	.	8g'\	.	8a'\J	.	8ee'\J	.
=95	=95	=95	=95	=95	=95	=95	=95
8F'/L	.	8e'\L	.	(8b-/L	.	(8cc#\L	.
8FF'/J	.	8a'\J	.	8a/J)	.	8dd\)	.
8r	.	8r	.	8f'/L	.	8a'\	.
8F#'\	.	8f#'\	.	8a'/J	.	8dd'\J	.
=96	=96	=96	=96	=96	=96	=96	=96
8G'/L	.	8g'\L	.	(8e/L	.	(8ccn\L	.
8GG'/J	.	8G'\J	.	8d/)	.	8b\J)	.
4r	.	4r	.	8g'/	p	8b'\L	p
.	.	.	.	8a'/J	.	8cc'\J	.
=97	=97	=97	=97	=97	=97	=97	=97
2r	.	2r	.	(8cc\L	.	(8ee\L	.
.	.	.	.	8b\)	.	8dd\J)	.
.	.	.	.	8b'\	.	8dd'\L	.
.	.	.	.	8cc#'\J	.	8ee'\J	.
=98	=98	=98	=98	=98	=98	=98	=98
4r	.	4r	.	(8ee\L	.	(8gg\L	.
.	.	.	.	8dd\J)	.	8ff\J)	.
8G'\L	p	8B'/L	p	4r	.	4r	.
8A'\J	.	8Cn'/J	.	.	.	.	.
=99	=99	=99	=99	=99	=99	=99	=99
(8c\L	.	(8e\L	.	2r	.	2r	.
8B\J)	.	8d\)	.	.	.	.	.
8B'\L	.	8d'\	.	.	.	.	.
8c#'\J	.	8e'\J	.	.	.	.	.
=100	=100	=100	=100	=100	=100	=100	=100
(8e\L	.	(8g\L	.	4r	.	4r	.
8d\J)	.	8f\J)	.	.	.	.	.
4r	.	4r	.	8b'\L	pp	8dd'\L	pp
.	.	.	.	8cc#'\J	.	8ee'\J	.
=101	=101	=101	=101	=101	=101	=101	=101
4r	.	4r	.	(8ee\L	.	(8gg\L	.
.	.	.	.	8dd\J)	.	8ff\J)	.
8BB'/L	pp	8D'/L	pp	4r	.	4r	.
8C#'/J	.	8E'/J	.	.	.	.	.
=102	=102	=102	=102	=102	=102	=102	=102
(8E\L	.	(8G/L	.	2r	.	2r	.
8D\J)	.	8F/J)	.	.	.	.	.
4r	.	4r	.	.	.	.	.
=103	=103	=103	=103	=103	=103	=103	=103
2r	.	2r	.	2r	.	2r	.
=104	=104	=104	=104	=104	=104	=104	=104
2r	.	2r	.	4r	.	4r	.
.	.	.	.	8cn'/L	p	8e'/L	p
.	.	.	.	8d'/J	.	8f'/J	.
=105	=105	=105	=105	=105	=105	=105	=105
8r	.	2r	.	(8d#/L	.	(8f#/L	.
8Cn'/L	p	.	.	8e/)	.	8g/J)	.
8CC'/	.	.	.	8f'/	.	8a'/L	.
8C'/J	.	.	.	8dn'/J	.	8b'/J	.
=106	=106	=106	=106	=106	=106	=106	=106
8CC'/L	.	2r	.	(8f/L	.	(8dd\L	.
8C'/J	.	.	.	8e/J)	.	8cc\J)	.
4r	.	.	.	8g'/L	.	8b'\L	.
.	.	.	.	8a'/J	.	8cc'\J	.
=107	=107	=107	=107	=107	=107	=107	=107
2r	.	8r	.	(8a#/L	.	(8cc#\L	.
.	.	8g'\L	p	8b/J)	.	8dd\J)	.
.	.	8B'\	.	8dd'\L	.	8ff'\L	.
.	.	8cn'\J	.	8ccn'\J	.	8ee'\J	.
=108	=108	=108	=108	=108	=108	=108	=108
4r	.	8G'\L	.	(8cc\L	.	(8ee\L	.
.	.	8g'\	.	8b\J)	.	8dd\J)	.
8e'\L	p	8g'\	.	8cc'\L	.	8cccn'\L	.
8e'\J	.	8g'\J	.	8cc'\J	.	8ccc'\J	.
=109	=109	=109	=109	=109	=109	=109	=109
! cresc.	!	! cresc.	!	! cresc.	!	! cresc.	!
4f\	.	8G\L	.	4dd\	.	(8ccc\L	.
.	.	8g'\	.	.	.	8bb\J)	.
8e'\L	.	8g'\	.	8cc'\L	.	8ccc'\L	.
8e'\J	.	8g'\J	.	8cc'\J	.	8ccc'\J	.
=110	=110	=110	=110	=110	=110	=110	=110
4f\	.	8G\L	.	4dd\	.	(8ccc\L	.
.	.	8g'\	.	.	.	8bb\J)	.
8E'\L	.	8g'\	.	8cc'\L	.	8ccc'\L	.
8E'\J	.	8g'\J	.	8cc'\J	.	8ccc'\J	.
=111	=111	=111	=111	=111	=111	=111	=111
8F'\L	mf	8a'\L	mf	8cc'/L	mf	8aa'\L	mf
8F'\	.	8a'\J	.	8cc'/	.	8aa'\J	.
8G'\	.	8d'\L	.	8f'/	.	(16cc\LL	.
.	.	.	.	.	.	16b\	.
8G'\J	.	8d'\J	.	8f'/J	.	16a\	.
.	.	.	.	.	.	16b\JJ)	.
=112	=112	=112	=112	=112	=112	=112	=112
4A\	.	4c\	.	4e/	.	8cc'\L	.
.	.	.	.	.	.	8cc'\J	.
4r	.	8a'\L	p	8cc'\L	p	8ff'\L	p
.	.	8a'\J	.	8cc'\J	.	8ff'\J	.
=113	=113	=113	=113	=113	=113	=113	=113
2r	.	8g#'\L	.	8b'\L	.	(8ff\L	.
.	.	8g#'\	.	8b'\	.	8ee\J)	.
.	.	8a'\	.	8cc'\	.	8dd#'\L	.
.	.	8a'\J	.	8cc'\J	.	8dd#'\J	.
=114	=114	=114	=114	=114	=114	=114	=114
2r	.	8g#'\L	.	8b'\L	.	(8dd#\L	.
.	.	8g#'\	.	8b'\	.	8ee\)	.
.	.	8gn'\	.	8b-'\	.	8ee'\	.
.	.	8g'\J	.	8b-'\J	.	8ee'\J	.
=115	=115	=115	=115	=115	=115	=115	=115
2r	.	8f#'\L	.	8a'/L	.	(8ee\L	.
.	.	8f#'\	.	8a'/	.	8ddn\)	.
.	.	8g'\	.	8b-'/	.	8cc#'\	.
.	.	8g'\J	.	8b-'/J	.	8cc#'\J	.
=116	=116	=116	=116	=116	=116	=116	=116
4r	.	8f#'\L	.	8a'/L	.	(8cc#\L	.
.	.	8f#'\	.	8a'/	.	8dd\J)	.
8fn'\L	mf	8bn'\	mf	8dd'/	mf	8aa'\L	mf
8f'\J	.	8b'\J	.	8dd'/J	.	8aa'\J	.
=117	=117	=117	=117	=117	=117	=117	=117
! cresc.	!	! cresc.	!	! cresc.	!	! cresc.	!
(8f\L	.	(8b\L	.	(8dd\L	.	(8aa\L	.
8e\)	.	8ccn\)	.	8ee\)	.	8gg\J)	.
8e'\	.	8g'\	.	8ccn'\	.	8cccn'\L	.
8e'\J	.	8g'\J	.	8cc'\J	.	8ccc'\J	.
=118	=118	=118	=118	=118	=118	=118	=118
4f\	.	4g\	.	4dd\	.	(8ccc\L	.
.	.	.	.	.	.	8bb\J)	.
8e'\L	.	8g'\L	.	8cc'\L	.	8ccc'\L	.
8e'\J	.	8g'\J	.	8cc'\J	.	8ccc'\J	.
=119	=119	=119	=119	=119	=119	=119	=119
4fz\	z	4gz\	z	4ddz\	z	(8cccz\L	z
.	.	.	.	.	.	8bb\J)	.
8e'\L	.	8g'\L	.	8cc'\L	.	8ccc'\L	.
8e'\J	.	8g'\J	.	8cc'\J	.	8ccc'\J	.
=120	=120	=120	=120	=120	=120	=120	=120
4fz\	z	4gz\	z	4ddz\	z	(8cccz\L	z
.	.	.	.	.	.	8bb\J)	.
8e'\L	.	8g'\L	.	8cc'\L	.	8ccc'\L	.
8e'\J	.	8g'\J	.	8cc'\J	.	8ccc'\J	.
=121	=121	=121	=121	=121	=121	=121	=121
[2B\	f	[2g\	f	[2dd\	f	[2fff\	f
=122	=122	=122	=122	=122	=122	=122	=122
4B;\]	.	4g;\]	.	4dd;\]	.	4fff;\]	.
8r	.	8r	.	8r	.	8r	.
! Adagio	!	! Adagio	!	! Adagio	!	! Adagio	!
(16.GG'/LL	f	(16.G'/LL	f	(16.G'/LL	f	(16.G'/LL	f
32GG'/JJk)	.	32G'/JJk)	.	32G'/JJk)	.	32G'/JJk)	.
=123	=123	=123	=123	=123	=123	=123	=123
4C/	.	4c/ 4E/	.	4c/	.	4c/	.
(8c\L	p	(8e\L	p	4r	.	4r	.
8d\J)	.	8f\J)	.	.	.	.	.
=124	=124	=124	=124	=124	=124	=124	=124
(8.e\L	.	(8.g\L	.	4r	.	4r	.
32f\LL	.	32a\LL	.	.	.	.	.
32e\JJJ)	.	32g\JJJ)	.	.	.	.	.
(8d\L	.	(8f\L	.	8r	.	8r	.
8c\J)	.	8e\J)	.	8g/	p	8gg\	.
=125	=125	=125	=125	=125	=125	=125	=125
(8B\L	.	(8d/L	.	(8.g/L	.	(8.gg\L	.
8G\)	.	8B/)	.	.	.	.	.
.	.	.	.	32a/LL	.	32aa\LL	.
.	.	.	.	32f/JJJ)	.	32ff\JJJ)	.
8c'\	.	8c'/	.	(8e/L	.	(8ee\L	.
8F'\J	.	8F'/J	.	16.a/L	.	16.ff\L	.
.	.	.	.	32f/JJk)	.	32dd\JJk)	.
=126	=126	=126	=126	=126	=126	=126	=126
8G'/L	.	8G'\L	.	(4e/	.	(4cc\	.
8GG'/	.	8g'\	.	.	.	.	.
8GG'/J	.	8G'\J	.	8d/)	.	8b\)	.
(16.GG'/LL	.	(16.G'/LL	.	8r	.	8r	.
32GG'/JJk)	.	32G'/JJk)	.	.	.	.	.
=127	=127	=127	=127	=127	=127	=127	=127
(8.d\L	.	(8.f\L	.	4r	.	4r	.
32e\LL	.	32g\LL	.	.	.	.	.
32d\JJJ)	.	32f\JJJ)	.	.	.	.	.
(8c#\L	.	(8e\L	.	8r	.	8r	.
8d\J)	.	8f\J)	.	(16.g'/LL	.	(16.g'/LL	.
.	.	.	.	32g'/JJk)	.	32g'/JJk)	.
=128	=128	=128	=128	=128	=128	=128	=128
(4B\	.	(4d\	.	(8.ff\L	>	(8.aa\L	>
.	.	.	.	48aa\LL	]	48ccc\LL	]
.	.	.	.	48gg\	.	48bb\	.
.	.	.	.	48ff\JJJ)	.	48aa\JJJ)	.
16cn\LL)	.	16e/LL)	.	(16ee'/LL	.	(16gg'\LL	.
(16G'\	.	(16B'/	.	16dd'/	.	16ff'\	.
16A'\	.	16c'/	.	16cc'/	.	16ee'\	.
16F'\JJ)	.	16F'/JJ)	.	16a'/JJ)	.	16dd'\JJ)	.
=129	=129	=129	=129	=129	=129	=129	=129
4G\	.	8G/	.	8e/	.	8cc\	.
.	.	8r	.	8r	.	8r	.
8r	.	(8.F/L	pp	(4B/	.	(8.g/L	pp
8GG/	pp	.	.	.	.	.	.
.	.	16D/Jk)	.	.	.	32a/LL	.
.	.	.	.	.	.	32f/JJJ	.
=130	=130	=130	=130	=130	=130	=130	=130
(8CC/L	.	16C'/LL	.	16c/LL)	.	8e/)	.
.	.	(16c'/	.	(16e'/	.	.	.
8EE/	.	16c'/	.	16e'/	.	8r	.
.	.	16c'/JJ)	.	16e'/JJ)	.	.	.
8GG/	.	(16c'/LL	.	(16e'/LL	.	8r	.
.	.	16c'/	.	16e'/	.	.	.
8C/J)	.	16c'/	.	16e'/	.	(16.cc'\LL	.
.	.	16c'/JJ)	.	16e'/JJ)	.	.	.
.	.	.	.	.	.	32cc'\JJk)	.
=131	=131	=131	=131	=131	=131	=131	=131
(8E\L	.	16c\LL	.	16g/LL	.	[4bb-\	.
.	.	16c\	.	16g/	.	.	.
8G\	.	16e\	.	16g/	.	.	.
.	.	16e\JJ	.	16g/JJ	.	.	.
8c\	.	16e\LL	.	16g/LL	.	16bb-\LL]	.
.	.	16e\	.	16g/	.	(32aa\L	.
.	.	.	.	.	.	32bb-\JJ	.
8e\J)	.	16e\	.	16g/	.	32aa\LL	.
.	.	.	.	.	.	32bb-\	.
.	.	16e\JJ	.	16g/JJ	.	32ccc\	.
.	.	.	.	.	.	32bb-\JJJ)	.
=132	=132	=132	=132	=132	=132	=132	=132
(8CC/L	.	16f\LL	.	16a/LL	.	8aa\	.
.	.	16f\	.	16a/	.	.	.
8FF/	.	16f\	.	16a/	.	8r	.
.	.	16f\JJ	.	16a/JJ	.	.	.
8AA/	.	16f\LL	.	16a/LL	.	8r	.
.	.	16f\	.	16a/	.	.	.
8C/J)	.	16f\	.	16a/	.	(16.aa'\LL	.
.	.	16f\JJ	.	16a/JJ	.	.	.
.	.	.	.	.	.	32aa'\JJk)	.
=133	=133	=133	=133	=133	=133	=133	=133
(8CC\L	.	16f\LL	.	16bn/ 16d/LL	.	[4fff\	.
.	.	16f\	.	16b/ 16d/	.	.	.
8Bn\	.	16f\	.	16b/ 16d/	.	.	.
.	.	16f\JJ	.	16b/ 16d/JJ	.	.	.
8d\	.	16f\LL	.	16b/ 16d/LL	.	16fff\LL]	.
.	.	16f\	.	16b/ 16d/	.	(32eee\L	.
.	.	.	.	.	.	32ddd\JJ	.
8f\J)	.	16f\	.	16dd/	.	32eee\LL	.
.	.	.	.	.	.	32ddd\	.
.	.	16f\JJ	.	16dd/JJ	.	32ccc\	.
.	.	.	.	.	.	32bbn\JJJ)	.
=134	=134	=134	=134	=134	=134	=134	=134
(8CC/L	.	16e\LL	.	16cc/LL	.	8ccc\	.
.	.	16c\	.	16e/ 16G/	.	.	.
8EE/	.	16c\	.	16e/ 16G/	.	8r	.
.	.	16c\JJ	.	16e/ 16G/JJ	.	.	.
8GG/	.	16c\LL	.	16e/ 16G/LL	.	8r	.
.	.	16c\	.	16e/ 16G/	.	.	.
8C/J)	.	16c\	.	16e/ 16G/	.	(16.cc'\LL	.
.	.	16c\JJ	.	16e/ 16G/JJ	.	.	.
.	.	.	.	.	.	32cc'\JJk)	.
=135	=135	=135	=135	=135	=135	=135	=135
(8E\L	.	16c\LL	.	16g/LL	.	[4bb-\	.
.	.	16c\	.	16g/	.	.	.
8G\	.	16e\	.	16g/	.	.	.
.	.	16e\JJ	.	16g/JJ	.	.	.
8c\	.	16e\LL	.	16g/LL	.	16bb-\LL]	.
.	.	16e\	.	16g/	.	(32aa\L	.
.	.	.	.	.	.	32bb-\JJ	.
8e\J)	.	16e\	.	16g/	.	32aa\LL	.
.	.	.	.	.	.	32bb-\	.
.	.	16e\JJ	.	16g/JJ	.	32ccc\	.
.	.	.	.	.	.	32bb-\JJJ)	.
=136	=136	=136	=136	=136	=136	=136	=136
(8CC/L	.	16f\LL	.	16a/LL	.	8aa\	.
.	.	16f\	.	16a/	.	.	.
8FF/	.	16f\	.	16a/	.	8r	.
.	.	16f\JJ	.	16a/JJ	.	.	.
8AA/	.	16f\LL	.	16a/LL	.	8r	.
.	.	16f\	.	16a/	.	.	.
8C/J)	.	16f\	.	16a/	.	(16.aa'\LL	.
.	.	16f\JJ	.	16a/JJ	.	.	.
.	.	.	.	.	.	32aa'\JJk)	.
=137	=137	=137	=137	=137	=137	=137	=137
(8CC\L	.	16f\LL	.	16bn/ 16d/LL	.	(8gg\L	.
.	.	16f\	.	16b/ 16d/	.	.	.
8B\	.	16f\	.	16b/ 16d/	.	8ff\J)	.
.	.	16f\JJ	.	16b/ 16d/JJ	.	.	.
8d\	.	16f\LL	.	16b/ 16d/LL	.	(32gg\LLL	.
.	.	.	.	.	.	32ff\	.
.	.	16f\	.	16b/ 16d/	.	32ee\	.
.	.	.	.	.	.	32dd\JJ	.
8f\J)	.	16f\	.	16b/ 16d/	.	32ee\LL	.
.	.	.	.	.	.	32dd\	.
.	.	16f\JJ	.	16b/ 16d/JJ	.	32cc\	.
.	.	.	.	.	.	32b\JJJ)	.
=138	=138	=138	=138	=138	=138	=138	=138
8CC/L	.	16e/LL	.	16cc/ 16e/LL	.	8cc\	.
.	.	16G/	.	16e/	.	.	.
8C/	.	16G/	.	16e/	.	8r	.
.	.	16G/JJ	.	16e/JJ	.	.	.
8CC/	pp	16d\LL 16B\	pp	16f/LL 16G/	pp	(32g/LLL	pp
.	.	.	.	.	.	32f/	.
.	.	16d\ 16B\	.	16f/ 16G/	.	32e/	.
.	.	.	.	.	.	32d/JJ	.
8C/J	.	16d\ 16B\	.	16f/ 16G/	.	32e/LL	.
.	.	.	.	.	.	32d/	.
.	.	16d\ 16B\JJ	.	16f/ 16G/JJ	.	32c/	.
.	.	.	.	.	.	32B/JJJ)	.
=139	=139	=139	=139	=139	=139	=139	=139
8CC/	.	8e\ 8c\	.	8e/ 8G/	.	8c/	.
8r	.	8r	.	8r	.	8r	.
8CC/	.	8G/L	.	8e/ 8G/	.	8e/L	.
8r	.	16r	.	8r	.	16r	.
.	.	16G/Jk	.	.	.	16e/Jk	.
=140	=140	=140	=140	=140	=140	=140	=140
8CC/	.	8E/	.	8e/ 8G/	.	8c/	.
8r	.	8r	.	8r	.	8r	.
4r	.	4r	.	4r	.	4r	.
! Fine	!	! Fine	!	! Fine	!	! Fine	!
==|!	==|!	==|!	==|!	==|!	==|!	==|!	==|!
*-	*-	*-	*-	*-	*-	*-	*-
!!!RWG: Appoggiaturas of spine 'Violino I' need manual editing in measures: 48
!!!RWG: Key is interpreted using the Humdrum key tool.
!!!GTL: 6 Quators ("Tost I + II")
!!!AFT: stage2
!!!END: 1994/08/31
!!!KEY: 2579732696
!!!EMD: Converted from MuseData to Humdrum Dec 16, 2000, by Andreas Kornstaedt using muse2kern.
!!!EMD: Manual editing by Craig Sapp, Nov 2001
